X: 1057
T: Am Fear Liath Mor
R: reel
M: 4/4
K: Cmajor
GA{B}AGA{B}AGA|BcAAGA{B}AG|ABcdcB{B}AG|.AzA3{B}AGA|
BcAzJc'bag|{a}edcebz3|Ja8-|a8-|a8-|a8-|a4z4|z8|
|:EAcdez {g}ed|cAG{B}GEG{B}AG|~F3A{A}FED2|DEEdedc/c/d|
e A g{b}gfdAG|F2z (3B/c/d/ cB{c}Az|EAcdez{a}ed|cAG{A}GE.GAG|
~JF3AFAcd|ez{a}edc/c/deg|dcBGEA{c}AG|A{c}AGABcAz:|
|:c~A3{B}cdeg|ef{a}fa{a}fedA|e~A3 {c}(3Bcd ed|cAGEJA3z|
e~A3cdeg|eJ~f3{a}fedA|(3Bcd Az (3Bcd {a}ed|cAGEJ~A3d|
e~A3cdeg|ef{a}fa{a}fed2|eA3cd{a}ed|cAGE{c}A3E|
e~A3cdeg|fAdf{a}fJged|(3Bcd Az (3Bcd {a}ed|cAGE{c}A2z2:|

